X:59
T:tri a wech
R:miniwet
N:dyma fel ma'i canu ar y ffliwt
Z:crm
M:3/2
L:1/2
Q:1/2=200
K:G
D/3E/3F/3|:{G}g2d|B>cd|aa/g/a/_b/a/|d/e/f/g/a/|
g2d|Bcd|_ba/g/|1_b/a/g2d/3e/3f/3:||2_b/a/g2f/g/||
|:a{b}a/g/f/g/|a/f/ag/a/|_ba/g/f/e/d/e/|d/c/B/c/d/e/|
d/c/B/c/d/e/|d/c/B/A/G|gfg-|1gf/g/:||2g>||
